Hatter-kde-dark/actions/16/draw-ellipse.svg

<?xml version="1.0" encoding="UTF-8"?>
<svg viewBox="0 0 16 16" xmlns="http://www.w3.org/2000/svg">
 <defs id="defs3051">
  <style id="current-color-scheme" type="text/css">.ColorScheme-Text {
        color:#dedede;
      }</style>
 </defs>
 <path class="ColorScheme-Text" d="m8 3a6 5 0 0 0-6 5 6 5 0 0 0 6 5 6 5 0 0 0 6-5 6 5 0 0 0-6-5zm0 1a5 4 0 0 1 5 4 5 4 0 0 1-5 4 5 4 0 0 1-5-4 5 4 0 0 1 5-4z" fill="currentColor"/>
</svg>

<svg xmlns="http://www.w3.org/2000/svg" viewBox="0 0 16 16">
  <defs id="defs3051">
    <style type="text/css" id="current-color-scheme">
      .ColorScheme-Text {
        color:#dedede;
      }
      </style>
  </defs>
 <path style="fill:currentColor;fill-opacity:1;stroke:none" 
     d="M 8 3 A 6 5 0 0 0 2 8 A 6 5 0 0 0 8 13 A 6 5 0 0 0 14 8 A 6 5 0 0 0 8 3 z M 8 4 A 5 4 0 0 1 13 8 A 5 4 0 0 1 8 12 A 5 4 0 0 1 3 8 A 5 4 0 0 1 8 4 z "
     class="ColorScheme-Text"
     />
</svg>
